assets/link.svg

<svg xmlns="http://www.w3.org/2000/svg" viewBox="0 0 640 512"><path d="M597.895 42.06C570.617 14.797 535.036.777 499.219 0 461.3-.823 423.117 13.197 394.238 42.06l-56.842 56.849c14.389 7.424 27.911 16.528 39.989 27.885l50.791-50.797c18.719-18.703 43.297-28.062 67.89-28.062 24.579 0 49.172 9.359 67.891 28.062 37.422 37.438 37.422 98.344 0 135.781L450.816 324.903c-36.296 36.297-99.5 36.266-135.765 0-18.141-18.14-28.125-42.234-28.125-67.89 0-17.559 5-34.233 13.777-48.926-11.252-10.367-26.887-16.418-43.496-16.418-.687 0-1.338.168-2.021.187-10.239 20.018-16.262 42.03-16.262 65.157 0 38.468 14.986 74.64 42.189 101.828 27.188 27.203 63.36 42.187 101.828 42.187 38.454 0 74.625-14.984 101.813-42.187l113.141-113.125C625.965 217.638 640 180.763 640 143.888s-14.035-73.75-42.105-101.828ZM211.824 435.935c-18.719 18.703-43.297 28.062-67.89 28.062-24.579 0-49.172-9.359-67.891-28.062-37.422-37.438-37.422-98.344 0-135.782l113.141-113.125c36.296-36.297 99.5-36.265 135.765 0 18.141 18.141 28.125 42.235 28.125 67.891 0 17.559-5 34.232-13.777 48.926 11.252 10.367 26.887 16.418 43.496 16.418.687 0 1.338-.168 2.021-.188 10.239-20.017 16.262-42.029 16.262-65.156 0-38.469-14.986-74.641-42.189-101.828-27.188-27.203-63.36-42.188-101.828-42.188-38.454 0-74.625 14.985-101.813 42.188L42.105 266.216C14.035 294.294 0 331.169 0 368.044s14.035 73.75 42.105 101.828c26.108 26.093 59.821 40.055 94.068 41.886 39.416 2.108 79.54-11.854 109.589-41.886l56.842-56.85c-14.389-7.423-27.911-16.527-39.989-27.884l-50.791 50.797Z"/></svg>

<svg xmlns="http://www.w3.org/2000/svg" viewBox="0 0 640 512"><!-- Font Awesome Pro 6.0.0-alpha2 by @fontawesome - https://fontawesome.com License - https://fontawesome.com/license (Commercial License) --><path d="M597.895 42.06C570.617 14.797 535.036 0.777 499.219 0C461.3 -0.823 423.117 13.197 394.238 42.06L337.396 98.909C351.785 106.333 365.307 115.437 377.385 126.794L428.176 75.997C446.895 57.294 471.473 47.935 496.066 47.935C520.645 47.935 545.238 57.294 563.957 75.997C601.379 113.435 601.379 174.341 563.957 211.778L450.816 324.903C414.52 361.2 351.316 361.169 315.051 324.903C296.91 306.763 286.926 282.669 286.926 257.013C286.926 239.454 291.926 222.78 300.703 208.087C289.451 197.72 273.816 191.669 257.207 191.669C256.52 191.669 255.869 191.837 255.186 191.856C244.947 211.874 238.924 233.886 238.924 257.013C238.924 295.481 253.91 331.653 281.113 358.841C308.301 386.044 344.473 401.028 382.941 401.028C421.395 401.028 457.566 386.044 484.754 358.841L597.895 245.716C625.965 217.638 640 180.763 640 143.888C640 107.013 625.965 70.138 597.895 42.06ZM211.824 435.935C193.105 454.638 168.527 463.997 143.934 463.997C119.355 463.997 94.762 454.638 76.043 435.935C38.621 398.497 38.621 337.591 76.043 300.153L189.184 187.028C225.48 150.731 288.684 150.763 324.949 187.028C343.09 205.169 353.074 229.263 353.074 254.919C353.074 272.478 348.074 289.151 339.297 303.845C350.549 314.212 366.184 320.263 382.793 320.263C383.48 320.263 384.131 320.095 384.814 320.075C395.053 300.058 401.076 278.046 401.076 254.919C401.076 216.45 386.09 180.278 358.887 153.091C331.699 125.888 295.527 110.903 257.059 110.903C218.605 110.903 182.434 125.888 155.246 153.091L42.105 266.216C14.035 294.294 0 331.169 0 368.044C0 404.919 14.035 441.794 42.105 469.872C68.213 495.965 101.926 509.927 136.173 511.758C175.589 513.866 215.713 499.904 245.762 469.872L302.604 413.022C288.215 405.599 274.693 396.495 262.615 385.138L211.824 435.935Z"/></svg>
